humanity-icon-theme/Humanity/mimes/22/application-x-bittorrent.svg

<?xml version="1.0" encoding="UTF-8" standalone="no"?>
<!-- Created with Inkscape (http://www.inkscape.org/) -->

<svg
   xmlns:svg="http://www.w3.org/2000/svg"
   xmlns="http://www.w3.org/2000/svg"
   xmlns:xlink="http://www.w3.org/1999/xlink"
   version="1.0"
   width="22"
   height="22"
   id="svg2755">
  <defs
     id="defs2757">
    <linearGradient
       id="linearGradient3104">
      <stop
         id="stop3106"
         style="stop-color:#aaaaaa;stop-opacity:1"
         offset="0" />
      <stop
         id="stop3108"
         style="stop-color:#c8c8c8;stop-opacity:1"
         offset="1" />
    </linearGradient>
    <linearGradient
       x1="-51.786404"
       y1="50.786446"
       x2="-51.786404"
       y2="2.9062471"
       id="linearGradient2664"
       xlink:href="#linearGradient3104"
       gradientUnits="userSpaceOnUse"
       gradientTransform="matrix(0.3922135,0,0,0.4473607,28.199292,0.7613003)" />
    <linearGradient
       id="linearGradient3600">
      <stop
         id="stop3602"
         style="stop-color:#f4f4f4;stop-opacity:1"
         offset="0" />
      <stop
         id="stop3604"
         style="stop-color:#dbdbdb;stop-opacity:1"
         offset="1" />
    </linearGradient>
    <linearGradient
       x1="25.132275"
       y1="0.98520643"
       x2="25.132275"
       y2="47.013336"
       id="linearGradient2662"
       xlink:href="#linearGradient3600"
       gradientUnits="userSpaceOnUse"
       gradientTransform="matrix(0.4857154,0,0,0.4780255,-0.65717039,1.2940499)" />
    <radialGradient
       cx="102"
       cy="112.3047"
       r="139.55859"
       id="XMLID_8_"
       gradientUnits="userSpaceOnUse">
      <stop
         id="stop41"
         style="stop-color:#b7b8b9;stop-opacity:1"
         offset="0" />
      <stop
         id="stop47"
         style="stop-color:#ececec;stop-opacity:1"
         offset="0.18851049" />
      <stop
         id="stop49"
         style="stop-color:#fafafa;stop-opacity:0"
         offset="0.25718147" />
      <stop
         id="stop51"
         style="stop-color:#ffffff;stop-opacity:0"
         offset="0.30111277" />
      <stop
         id="stop53"
         style="stop-color:#fafafa;stop-opacity:0"
         offset="0.53130001" />
      <stop
         id="stop55"
         style="stop-color:#ebecec;stop-opacity:0"
         offset="0.84490001" />
      <stop
         id="stop57"
         style="stop-color:#e1e2e3;stop-opacity:0"
         offset="1" />
    </radialGradient>
    <radialGradient
       cx="102"
       cy="112.3047"
       r="139.55859"
       id="radialGradient2659"
       xlink:href="#XMLID_8_"
       gradientUnits="userSpaceOnUse"
       gradientTransform="matrix(0.1702128,0,0,-0.1907226,0.10638221,25.716504)" />
    <linearGradient
       id="linearGradient3211">
      <stop
         id="stop3213"
         style="stop-color:#ffffff;stop-opacity:1"
         offset="0" />
      <stop
         id="stop3215"
         style="stop-color:#ffffff;stop-opacity:0"
         offset="1" />
    </linearGradient>
    <linearGradient
       x1="24"
       y1="1.9999999"
       x2="24"
       y2="46.01725"
       id="linearGradient2656"
       xlink:href="#linearGradient3211"
       gradientUnits="userSpaceOnUse"
       gradientTransform="matrix(0.4545444,0,0,0.4651153,0.09093361,2.3372293)" />
    <linearGradient
       id="linearGradient5105-262-943-861">
      <stop
         id="stop2487"
         style="stop-color:#0d0d0d;stop-opacity:1"
         offset="0" />
      <stop
         id="stop2489"
         style="stop-color:#0d0d0d;stop-opacity:0"
         offset="1" />
    </linearGradient>
    <radialGradient
       cx="11.25"
       cy="19.03125"
       r="8.0625"
       fx="11.25"
       fy="19.03125"
       id="radialGradient2719"
       xlink:href="#linearGradient5105-262-943-861"
       gradientUnits="userSpaceOnUse"
       gradientTransform="matrix(0.9922481,0,0,0.27286877,-0.16279199,15.60697)" />
    <linearGradient
       id="linearGradient2747">
      <stop
         id="stop2749"
         style="stop-color:#517081;stop-opacity:0"
         offset="0" />
      <stop
         id="stop2751"
         style="stop-color:#3f6479;stop-opacity:1"
         offset="0.28050154" />
      <stop
         id="stop2753"
         style="stop-color:#2e5871;stop-opacity:1"
         offset="1" />
    </linearGradient>
    <linearGradient
       x1="16.712811"
       y1="12.415152"
       x2="16.712811"
       y2="33.62434"
       id="linearGradient2723"
       xlink:href="#linearGradient2747"
       gradientUnits="userSpaceOnUse"
       gradientTransform="matrix(0.6615388,0,0,0.6650069,-4.7331459,-0.7598609)" />
    <linearGradient
       id="linearGradient2739">
      <stop
         id="stop2741"
         style="stop-color:#a2bfcf;stop-opacity:0"
         offset="0" />
      <stop
         id="stop2743"
         style="stop-color:#a2bfcf;stop-opacity:1"
         offset="0.28208435" />
      <stop
         id="stop2745"
         style="stop-color:#427da1;stop-opacity:1"
         offset="1" />
    </linearGradient>
    <linearGradient
       x1="44.714668"
       y1="20.709501"
       x2="0.81572169"
       y2="20.709501"
       id="linearGradient2721"
       xlink:href="#linearGradient2739"
       gradientUnits="userSpaceOnUse"
       gradientTransform="matrix(0,-0.3270175,-0.3191051,0,18.767516,22.121598)" />
    <linearGradient
       id="linearGradient2731">
      <stop
         id="stop2733"
         style="stop-color:#ffffff;stop-opacity:0"
         offset="0" />
      <stop
         id="stop2735"
         style="stop-color:#ffffff;stop-opacity:1"
         offset="0.17358671" />
      <stop
         id="stop2737"
         style="stop-color:#ffffff;stop-opacity:0"
         offset="1" />
    </linearGradient>
    <linearGradient
       x1="6.0093474"
       y1="25.410501"
       x2="57.726395"
       y2="25.410501"
       id="linearGradient2725"
       xlink:href="#linearGradient2731"
       gradientUnits="userSpaceOnUse"
       gradientTransform="matrix(0,0.3426517,-0.3300654,0,20.038338,6.427127)" />
    <linearGradient
       id="linearGradient8589">
      <stop
         id="stop8591"
         style="stop-color:#fefefe;stop-opacity:1"
         offset="0" />
      <stop
         id="stop8593"
         style="stop-color:#cbcbcb;stop-opacity:1"
         offset="1" />
    </linearGradient>
    <linearGradient
       x1="32.892288"
       y1="8.0590115"
       x2="36.358372"
       y2="5.4565363"
       id="linearGradient2652"
       xlink:href="#linearGradient8589"
       gradientUnits="userSpaceOnUse"
       gradientTransform="matrix(0.4778466,0,0,0.5524833,-0.62774609,1.9238717)" />
  </defs>
  <g
     transform="translate(0,-2)"
     id="layer1">
    <path
       d="m 2.4999608,2.499961 c 3.8955799,0 7.6044552,0 11.5000382,0 0.683368,0.2372969 4.541325,3.12817 5.5,5.000039 0,5.729157 3.9e-5,10.270842 3.9e-5,16 l -17.0000772,0 c 0,-7.33336 0,-13.6666811 0,-21.000039 z"
       id="path4160"
       style="fill:url(#linearGradient2662);fill-opacity:1;stroke:url(#linearGradient2664);stroke-width:0.99992162;stroke-linecap:butt;stroke-linejoin:round;stroke-miterlimit:4;stroke-opacity:1;stroke-dasharray:none;stroke-dashoffset:0;display:inline" />
    <path
       d="M 3.1702119,24 C 3.0764249,24 2.9999991,23.91437 2.9999991,23.809277 l 0,-20.5980318 c 0,-0.1052785 0.076426,-0.1907219 0.1702128,-0.1907219 3.5214555,0.052717 7.4238521,-0.078858 10.9410271,0.013125 l 4.838887,4.3271368 0.04987,16.4484919 C 18.999999,23.914366 18.923742,24 18.829785,24 L 3.1702119,24 z"
       id="path4191"
       style="fill:url(#radialGradient2659);fill-opacity:1" />
    <path
       d="m 18.5,7.6770357 c 0,5.2083053 0,10.6146573 0,15.8229643 -5,0 -9.9999997,0 -15.0000009,0 0,-6.66667 0,-13.333334 0,-20.0000001 3.4372614,0 6.9564989,0 10.3937609,0"
       id="path2435"
       style="opacity:0.6;fill:none;stroke:url(#linearGradient2656);stroke-width:0.99999988;stroke-linecap:butt;stroke-linejoin:miter;stroke-miterlimit:4;stroke-opacity:1;stroke-dasharray:none;stroke-dashoffset:0;display:inline" />
    <path
       d="m 18.999999,20.799998 a 8.0000003,2.2000024 0 0 1 -16.0000002,0 8.0000003,2.2000024 0 1 1 16.0000002,0 z"
       id="path4346"
       style="opacity:0.16292138;fill:url(#radialGradient2719);fill-opacity:1;fill-rule:nonzero;stroke:none;stroke-width:1;marker:none;visibility:visible;display:inline;overflow:visible" />
    <path
       d="M 17.176045,14.5 10.984484,21.500853 4.8239531,14.5 l 2.6760464,0 0,-8.727048 6.9999995,0 0,8.727048 2.676046,0 z"
       id="path3288"
       style="fill:url(#linearGradient2721);fill-opacity:1;fill-rule:nonzero;stroke:url(#linearGradient2723);stroke-width:0.98542738;stroke-linecap:round;stroke-linejoin:round;stroke-miterlimit:4;stroke-opacity:0.88235504;stroke-dasharray:none;stroke-dashoffset:0;marker:none;visibility:visible;display:inline;overflow:visible;enable-background:accumulate" />
    <path
       d="M 14.926402,15.5 10.999999,20.045115 6.9630613,15.5 l 1.5369382,0 0,-12.951797 4.9999995,0 0,12.951797 1.426403,0 z"
       id="path3290"
       style="opacity:0.35400002;fill:none;stroke:url(#linearGradient2725);stroke-width:0.98542738;stroke-linecap:butt;stroke-linejoin:miter;stroke-miterlimit:4;stroke-opacity:1;stroke-dasharray:none;stroke-dashoffset:0;marker:none;visibility:visible;display:inline;overflow:visible;enable-background:accumulate" />
    <path
       d="m 13.075473,3 c 1.156303,0.3287671 0.339059,4.6143789 0.339059,4.6143789 0,0 4.515388,-0.4277362 5.60771,1.1949961 1.489153,2.212257 -0.06822,-0.6351721 -0.173447,-0.8216972 C 18.092867,6.6476323 14.982455,3.4405918 13.803386,3.0464703 13.715154,3.0169778 13.51951,3 13.075473,3 z"
       id="path3370"
       style="fill:#c0c0c0;fill-opacity:1;fill-rule:evenodd;stroke:none;display:inline" />
    <path
       d="m 12.999999,3 c 1.526166,0 1,4 1,4 0,0 4.992074,-0.45326 4.992074,2 0,-0.5977419 0.05575,-1.4784338 -0.06407,-1.6559326 C 18.088896,6.1010616 15.184238,3.4821803 14.129934,3.0464703 14.043956,3.0109384 13.444036,3 12.999999,3 z"
       id="path4474"
       style="fill:url(#linearGradient2652);fill-opacity:1;fill-rule:evenodd;stroke:none;display:inline" />
  </g>
</svg>

<?xml version="1.0" encoding="UTF-8" standalone="no"?>
<!-- Created with Inkscape (http://www.inkscape.org/) -->
<svg id="svg2755" xmlns="http://www.w3.org/2000/svg" height="22" width="22" version="1.0" xmlns:xlink="http://www.w3.org/1999/xlink">
 <defs id="defs2757">
  <linearGradient id="linearGradient2664" y2="2.9062" gradientUnits="userSpaceOnUse" x2="-51.786" gradientTransform="matrix(.39221 0 0 .44736 28.199 .76130)" y1="50.786" x1="-51.786">
   <stop id="stop3106" style="stop-color:#aaa" offset="0"/>
   <stop id="stop3108" style="stop-color:#c8c8c8" offset="1"/>
  </linearGradient>
  <linearGradient id="linearGradient2662" y2="47.013" gradientUnits="userSpaceOnUse" x2="25.132" gradientTransform="matrix(.48572 0 0 .47803 -.65717 1.294)" y1=".98521" x1="25.132">
   <stop id="stop3602" style="stop-color:#f4f4f4" offset="0"/>
   <stop id="stop3604" style="stop-color:#dbdbdb" offset="1"/>
  </linearGradient>
  <radialGradient id="radialGradient2659" gradientUnits="userSpaceOnUse" cy="112.3" cx="102" gradientTransform="matrix(.17021 0 0 -.19072 .10638 25.717)" r="139.56">
   <stop id="stop41" style="stop-color:#b7b8b9" offset="0"/>
   <stop id="stop47" style="stop-color:#ececec" offset=".18851"/>
   <stop id="stop49" style="stop-color:#fafafa;stop-opacity:0" offset=".25718"/>
   <stop id="stop51" style="stop-color:#fff;stop-opacity:0" offset=".30111"/>
   <stop id="stop53" style="stop-color:#fafafa;stop-opacity:0" offset=".53130"/>
   <stop id="stop55" style="stop-color:#ebecec;stop-opacity:0" offset=".84490"/>
   <stop id="stop57" style="stop-color:#e1e2e3;stop-opacity:0" offset="1"/>
  </radialGradient>
  <linearGradient id="linearGradient2656" y2="46.017" gradientUnits="userSpaceOnUse" x2="24" gradientTransform="matrix(.45454 0 0 .46512 .090934 2.3372)" y1="2" x1="24">
   <stop id="stop3213" style="stop-color:#fff" offset="0"/>
   <stop id="stop3215" style="stop-color:#fff;stop-opacity:0" offset="1"/>
  </linearGradient>
  <radialGradient id="radialGradient2719" gradientUnits="userSpaceOnUse" cy="19.031" cx="11.25" gradientTransform="matrix(.99225 0 0 .27287 -.16279 15.607)" r="8.0625">
   <stop id="stop2487" style="stop-color:#0d0d0d" offset="0"/>
   <stop id="stop2489" style="stop-color:#0d0d0d;stop-opacity:0" offset="1"/>
  </radialGradient>
  <linearGradient id="linearGradient2723" y2="33.624" gradientUnits="userSpaceOnUse" x2="16.713" gradientTransform="matrix(.66154 0 0 .66501 -4.7331 -.75986)" y1="12.415" x1="16.713">
   <stop id="stop2749" style="stop-color:#517081;stop-opacity:0" offset="0"/>
   <stop id="stop2751" style="stop-color:#3f6479" offset=".28050"/>
   <stop id="stop2753" style="stop-color:#2e5871" offset="1"/>
  </linearGradient>
  <linearGradient id="linearGradient2721" y2="20.71" gradientUnits="userSpaceOnUse" x2=".81572" gradientTransform="matrix(0 -.32702 -.31911 0 18.768 22.122)" y1="20.71" x1="44.715">
   <stop id="stop2741" style="stop-color:#a2bfcf;stop-opacity:0" offset="0"/>
   <stop id="stop2743" style="stop-color:#a2bfcf" offset=".28208"/>
   <stop id="stop2745" style="stop-color:#427da1" offset="1"/>
  </linearGradient>
  <linearGradient id="linearGradient2725" y2="25.411" gradientUnits="userSpaceOnUse" x2="57.726" gradientTransform="matrix(0 .34265 -.33007 0 20.038 6.4271)" y1="25.411" x1="6.0093">
   <stop id="stop2733" style="stop-color:#fff;stop-opacity:0" offset="0"/>
   <stop id="stop2735" style="stop-color:#fff" offset=".17359"/>
   <stop id="stop2737" style="stop-color:#fff;stop-opacity:0" offset="1"/>
  </linearGradient>
  <linearGradient id="linearGradient2652" y2="5.4565" gradientUnits="userSpaceOnUse" x2="36.358" gradientTransform="matrix(.47785 0 0 .55248 -.62775 1.9239)" y1="8.059" x1="32.892">
   <stop id="stop8591" style="stop-color:#fefefe" offset="0"/>
   <stop id="stop8593" style="stop-color:#cbcbcb" offset="1"/>
  </linearGradient>
 </defs>
 <g id="layer1" transform="translate(0,-2)">
  <path id="path4160" style="stroke-linejoin:round;stroke:url(#linearGradient2664);stroke-width:.99992;fill:url(#linearGradient2662)" d="m2.5 2.5h11.5c0.68337 0.2373 4.5413 3.1282 5.5 5 0 5.7292 0.000039 10.271 0.000039 16h-17v-21z"/>
  <path id="path4191" style="fill:url(#radialGradient2659)" d="m3.1702 24c-0.0938 0-0.1702-0.086-0.1702-0.191v-20.598c0-0.10528 0.076426-0.19072 0.17021-0.19072 3.5215 0.052717 7.4239-0.078858 10.941 0.013125l4.8389 4.3271 0.04987 16.448c0 0.106-0.076 0.192-0.17 0.192h-15.66z"/>
  <path id="path2435" style="opacity:.6;stroke:url(#linearGradient2656);fill:none" d="m18.5 7.677v15.823h-15v-20h10.394"/>
  <path id="path4346" style="opacity:.16292;fill:url(#radialGradient2719)" d="m19 20.8a8 2.2 0 0 1 -16 0 8 2.2 0 1 1 16 0z"/>
  <path id="path3288" style="stroke-linejoin:round;stroke-width:.98543;stroke-opacity:.88236;stroke:url(#linearGradient2723);stroke-linecap:round;fill:url(#linearGradient2721)" d="m17.176 14.5-6.192 7.001-6.16-7.001h2.676v-8.727h7v8.727h2.676z"/>
  <path id="path3290" style="opacity:0.354;stroke-width:.98543;stroke:url(#linearGradient2725);fill:none" d="m14.926 15.5-3.926 4.545-4.0369-4.545h1.5369v-12.952h5v12.952h1.4264z"/>
  <path id="path3370" style="fill:#c0c0c0;fill-rule:evenodd" d="m13.075 3c1.1563 0.32877 0.33906 4.6144 0.33906 4.6144s4.5154-0.42774 5.6077 1.195c1.4892 2.2123-0.06822-0.63517-0.17345-0.8217-0.755-1.3401-3.866-4.5471-5.045-4.9412-0.088-0.0295-0.283-0.0465-0.728-0.0465z"/>
  <path id="path4474" style="fill:url(#linearGradient2652);fill-rule:evenodd" d="m13 3c1.5262 0 1 4 1 4s4.9921-0.45326 4.9921 2c0-0.59774 0.05575-1.4784-0.06407-1.6559-0.839-1.243-3.744-3.8619-4.798-4.2976-0.086-0.0356-0.686-0.0465-1.13-0.0465z"/>
 </g>
</svg>
